X:1
T:Title
%%score ( 1 2 ) { 3 | 4 }
L:1/8
Q:1/4=105
M:4/4
K:F
V:1 treble nm="Grand Piano, Treble Clef"
V:2 treble 
V:3 bass nm="Choir Pad, Clyne, CMD"
V:4 bass 
V:1
 D2 B2 AG A2 | [D^F]2 [DG]2 [D=F]2 [^CE]2 | [^CE]2 [DA]2- [DA][DA] [CG]2 | [DF]2 [^CE]4 z2 | %4
w: By~R.~F.~Smith,~1894 * * * *||||
 [CE]2 [CF]2 G_A [^CA]2 | [^CG]2 [CG]2 [=C_A][B,B] [=B,A]2 | [=B,F]2 [CF]2 [Fc]2 [EB]2 | %7
w: |||
 [F_A]2 [EG]4 z2 | [Ec]>[EB] [FA]2 [CF]2 [B,D]2 | [B,B]2 AG AB [Cc]2 | [Cc]2 [Dc]2 BA [DG]2 | %11
w: ||||
 D2 [CE]4 z2 | [Ec]2 [Fc]2 [FA][EG] [DF]2 | [DF]2 [Dd]2 BA [EG]2 | [Ec]2 fc BA G2- | GF F6- | %16
w: |||||
 F2 z2 z4 |] %17
w: |
V:2
 x8 | x8 | x8 | x8 | z4 C2 z2 | x8 | x8 | x8 | x8 | z2 C2 C2 z2 | z4 D2 z2 | x8 | x8 | z4 D2 z2 | %14
 z2 F2 F2 F2 | E2 z2 z4 | x8 |] %17
V:3
 D,2 B,2 A,G, A,2 | A,2 B,2 =B,2 ^C2 | A,2 A,2- A,A,B,A, | A,2 A,4 z2 | G,2 _A,2 A,2 B,2 | %5
 B,2 B,2 F,G, F,2 | _A,2 A,2 A,2 G,2 | =B,2 C4 z2 | C>C C2 A,2 F,2 | G,2 F,E, F,G, A,2 | %10
 F,2 F,2 G,A, B,2 | B,2 G,4 z2 | G,2 A,2 C^C D2 | B,2 B,2 G,2 G,2 | G,2 A,2[K:treble] DC C2 | %15
 B,2 A,6- | A,2 z2 z4 |] %17
V:4
 z8 | D,2 B,,2 _A,,2 =A,,2 | _A,2 F,2- F,F, E,2 | D,2 A,,4 z2 | C,2 F,2 F,2 E,2 | %5
 _E,2 E,2 E,2 D,2 | D,2 C,2 C,2 C,2 | C,2 C,4 z2 | C,>C, F,2 A,,2 B,,2 | G,,2 C,2 B,,2 A,,2 | %10
 A,,2 B,,2 B,,2 B,,2 | B,,2 C,4 z2 | C,2 F,2 A,,2 B,,2 | B,,2 G,,2 G,,2 C,2 | B,,2 A,,2 B,,2 C,2 | %15
 C,2 [F,,F,]6- | [F,,F,]2 z2 z4 |] %17

